!!!!SEGMENT: pl-wtm--r-1150_dobrzynski-ignacy-feliks--piosnka-aliny.krn
!!!cenid: 18xx:1758
!!!COM: Dobrzyński, Ignacy Feliks
!!!COM-rism: pe30020642
!!!CDT: 1807/02/15-1867/10/09
!!!CNT: Polish
!!!OTL: Piosnka Aliny
!!!PDT: 1862
!!!AGN: Secular
!!!SMS-siglum: PL-Wtm
!!!SMS-shelfmark: R 1150
!!!NIFC-rismID: 1001058039
!!!URL-scan: http://repozytorium.nifc.pl/skany/pl-wtm-nut--r1150
!!!ONB-nifc:
!!!SMS-variant:
!!!SMS-altvar:
**kern	**fing	**kern	**dynam	**kern	**text	**text	**dynam
*part2	*	*part2	*part2	*part1	*part1	*part1	*part1
*staff3	*	*staff2	*	*staff1	*staff1	*staff1	*
*I"Fortepian	*	*	*	*I"Głos	*	*	*
*I'pf	*	*	*	*I'V	*	*	*
*clefF4	*	*clefG2	*	*clefG2	*	*	*
*k[b-e-a-d-]	*	*k[b-e-a-d-]	*	*k[b-e-a-d-]	*	*	*
*M3/4	*	*M3/4	*	*M3/4	*	*	*
*>[A,B,B1,B,B2,C]	*	*>[A,B,B1,B,B2,C]	*	*>[A,B,B1,B,B2,C]	*	*	*
=1	=1	=1	=1	=1	=1	=1	=1
*>A	*	*>A	*	*>A	*	*	*
!	!	!	!	!LO:TX:a:i:t=Andantino con moto. \ne doloroso.	!	!	!
4C 4FF/	.	4f 4c 4A-/	.	2.r	.	.	.
4C 4FF/	.	4f 4c 4A-/	.	.	.	.	.
4C 4FF/	.	4f 4c 4A-/	.	.	.	.	.
=2	=2	=2	=2	=2	=2	=2	=2
*rep	*	*rep	*	*	*	*	*
4C 4FF/	.	4f 4c 4A-/	.	2.r	.	.	.
4C 4FF/	.	4f 4c 4A-/	.	.	.	.	.
4C 4FF/	.	4f 4c 4A-/	.	.	.	.	.
*Xrep	*	*Xrep	*	*	*	*	*
=3!|:	=3!|:	=3!|:	=3!|:	=3!|:	=3!|:	=3!|:	=3!|:
*>B	*	*>B	*	*>B	*	*	*
*rep	*	*	*	*	*	*	*
4C 4FF/	.	4f 4c 4A-/	.	4cc\	Gdzie-	Je-	.
4C 4FF/	.	4f 4c 4A-/	.	4a-/	-żeś	-dna	.
4C 4FF/	.	4f 4c 4A-/	.	4f/	a-	gwia-	.
*Xrep	*	*	*	*	*	*	*
=4	=4	=4	=4	=4	=4	=4	=4
*rep	*	*	*	*	*	*	*
4C 4FF/	.	4en 4B-/	.	2g/	-nie-	-zdecz-	.
4C 4FF/	.	4e 4B-/	.	.	.	.	.
4C 4FF/	.	4f 4c 4A-/	.	8f/	-le?	-ka	.
.	.	.	.	8r	.	.	.
*Xrep	*	*	*	*	*	*	*
!!LO:LB:g=original
=5	=5	=5	=5	=5	=5	=5	=5
4C 4FF/	.	4f 4c 4A-</	.	8dd-\	gdzie-	bły-	.
.	.	.	.	8cc\	-żeś	-sła	.
*rep	*	*rep	*	*	*	*	*
4C 4FF/	.	4f 4c 4A-/	.	4a-\	che-	mi	.
*Xrep	*	*Xrep	*	*	*	*	*
*rep	*	*rep	*	*	*	*	*
4C 4FF/	.	4f 4c 4A-/	.	4f/	-ru-	na	.
*Xrep	*	*Xrep	*	*	*	*	*
=6	=6	=6	=6	=6	=6	=6	=6
*rep	*	*	*	*	*	*	*
4C 4FF/	.	4en 4c 4B-</	.	2g/	-bi-	nie-	.
4C 4FF/	.	4e 4c 4B-</	.	.	.	.	.
4C 4FF/	.	4f 4c 4A-</	.	8f/	-nie	-bie	.
.	.	.	.	8r	.	.	.
*Xrep	*	*	*	*	*	*	*
=7	=7	=7	=7	=7	=7	=7	=7
2.F 2.FF\	.	4e- 4c 4A-</	.	4f/	Na	bły-	.
.	.	4g 4en 4c/	.	4g/	ja-	-snę-	.
.	.	4a- 4f 4c/	.	4a-/	-snych	-ła	.
!!LO:LB:g=original
=8	=8	=8	=8	=8	=8	=8	=8
2.E- 2.EE-/	.	4r	.	2b-\	skrzy-	świa-	.
.	.	4b- 4g 4e- 4d-/	.	.	.	.	.
.	.	4e- 4d-/	.	8e-/	-dłach	-tłem	.
.	.	.	.	8b-\	wzle-	w mej	.
=9	=9	=9	=9	=9	=9	=9	=9
2.E- 2.EE-/	.	4b- 4g 4e- 4d-/	.	4b-\	-cia-	du-	.
.	.	4a- 4e- 4c/	.	4a-\	-łeś	-szy	.
.	.	4b- 4g 4e- 4d-/	.	4b-\	w nie-	głę-	.
=10	=10	=10	=10	=10	=10	=10	=10
2.A- 2.AA-/	.	4r	.	2cc\	-bio-	-bi-	.
.	.	4cc 4a- 4e- 4c/	.	.	.	.	.
.	.	8a- 8e- 8c/	.	8a-\	-sa	-nie	.
.	.	8r	.	8r	.	.	.
!!LO:LB:g=original
=11	=11	=11	=11	=11	=11	=11	=11
2.A- 2.AA-/	.	4r	.	4cc\	J	J	.
.	.	4f#X 4c/	.	4ddn\	za-	spa-	.
.	.	4f# 4e- 4c/	.	4ee-\	-po-	-dła	.
=12	=12	=12	=12	=12	=12	=12	=12
*^	*	*	*	*^	*	*	*
2G/	2.GG\	.	4r	.	2ee-\	2ee-\	-mnia-	gwia-	.
.	.	.	4g 4e- 4c/	.	.	.	.	.	.
4ryy	.	.	4e- 4c/ 4G<	.	8cc\	4cc/	-łeś	-zdka	.
.	.	.	.	.	8g/	.	o	.	.
*v	*v	*	*	*	*	*	*	*	*
=13	=13	=13	=13	=13	=13	=13	=13	=13
2.GG/	.	4r	.	4a-X/	8g\	bie-	ach	.
.	.	.	.	.	8g\	.	już	.
.	.	4f 4dn 4Bn< 4G</	.	4g/	4a-X\	-dnej	nie	.
.	.	4f 4d 4B< 4G</	.	4g/	4g/	dzie-	ma	.
*	*	*	*	*v	*v	*	*	*
!!LO:PB:g=original
=14	=14	=14	=14	=14	=14	=14	=14
2C 2CC/	.	4r	.	2g/	-wczy-	nie-	.
.	.	4en 4c 4G</	.	.	.	.	.
4r	.	8cc 8g 8e 8c/	.	8c/	-nie	-bie	.
.	.	8r	.	8r	.	.	.
=15	=15	=15	=15	=15	=15	=15	=15
2C 2CC/	.	4g 4en/	.	4g/	a	a-	.
.	.	4a- 4f/	.	4a-/	mnie	-nioł	.
4r	.	4b- 4g/	.	4b-/	tak	z nią	.
=16	=16	=16	=16	=16	=16	=16	=16
*	*	*	*	*^	*	*	*
2.F 2.FF/	.	4r	.	2b-/	2b-/	tę-	wio-	.
.	.	4b- 4g/	.	.	.	.	.	.
.	.	4a- 4f/	.	4a-/	8a-\	-skno	-nął	.
.	.	.	.	.	8dd-\	.	w nie-	.
=17	=17	=17	=17	=17	=17	=17	=17	=17
2.En 2.EEn/	.	(4dd- 4b-\	.	8dd-\	4dd-/	smu-	-bio-	.
.	.	.	.	8dd-\	.	-tne	.	.
.	.	4cc 4a-\	.	4cc/	4cc\	ży-	-sa	.
.	.	4b- 4g\)	.	4b-/	4b-\	-cie	do	.
*	*	*	*	*v	*v	*	*	*
!!LO:LB:g=original
=18	=18	=18	=18	=18	=18	=18	=18
2F 2FF/	.	4r	.	2b-\	pły-	sie-	.
.	.	4b- 4g 4d-/	.	.	.	.	.
4r	.	4a- 4f 4c/	.	8a-\	-nie	-bie	.
.	.	.	.	8r	.	.	.
=19	=19	=19	=19	=19	=19	=19	=19
2.D- 2.DD-/	.	4r	.	4a-/	jak	a	.
.	.	4f 4Bn< 4A-</	.	4g/	ta	mnie	.
.	.	4f 4B< 4A-</	.	4f/	pio-	tak	.
=20	=20	=20	=20	=20	=20	=20	=20
2C 2CC/	.	4r	.	2a-/	-sen-	tę-	.
.	.	4f 4c< 4A-</	.	.	.	.	.
4r	.	4f 4c< 4A-</	.	4f/	-ka	-skno	.
=21	=21	=21	=21	=21	=21	=21	=21
2.C 2.CC/	.	4r	.	8g/	gdy	smu-	.
.	.	.	.	8g/	ją	-tne	.
.	.	4en 4c< 4B-</	.	4.a-/	pie-	ży-	.
.	.	4e 4c< 4B-</	.	.	.	.	.
.	.	.	.	8g/	-ści	-cie	.
!!LO:LB:g=original
=22	=22	=22	=22	=22	=22	=22	=22
2F 2FF/	.	4r	.	4g/	ro-	pły-	.
.	.	4f 4c 4A-/	.	4f/	-sa	-nie	.
4r	.	4f 4c 4A-/	.	4r	.	.	.
=23	=23	=23	=23	=23	=23	=23	=23
4C 4FF\	.	4f 4c< 4A-</	.	4cc\	gdzie-	Gdzie-	.
4C 4FF\	.	4f 4c< 4A-</	.	4a-\	-żeś	-żeś	.
4C 4FF\	.	4f 4c< 4A-</	.	4f\	a-	ma	.
=24	=24	=24	=24	=24	=24	=24	=24
*rep	*	*	*	*	*	*	*
4C 4FF\	.	4en 4c< 4B-</	.	2g/	-nie-	gwia-	.
4C 4FF\	.	4e 4c< 4B-</	.	.	.	.	.
4C 4FF\	.	4f 4c< 4A-</	.	8f/	-le	-zdko	.
.	.	.	.	8r	.	.	.
*Xrep	*	*	*	*	*	*	*
=25	=25	=25	=25	=25	=25	=25	=25
*rep	*	*	*	*	*	*	*
4C 4FF\	.	4f 4c< 4A-</	.	8dd-\	gdzie-	gdzie-	.
.	.	.	.	8cc\	-żeś	-żeś	.
4C 4FF\	.	4f 4c< 4A-</	.	4a-\	che-	che-	.
4C 4FF\	.	4f 4c< 4A-</	.	4f\	-ru-	-ru-	.
*Xrep	*	*	*	*	*	*	*
!!LO:LB:g=original
=26	=26	=26	=26	=26	=26	=26	=26
!	!	!LO:S:problem:note-level slur	!	!	!	!	!
((2.C 2.CC/	.	((2.g (2.en (<2.c 2.B-/	.	2.g/	-bi-	-bi-	.
=27	=27	=27	=27	=27	=27	=27	=27
(8FF/L))	.	4.f 4.c) 4.A-/))	.	4f/	-nie	-nie	.
*	*^	*	*	*	*	*	*
8C/	.	2	.	.	.	.	.	.
8A-/	.	1	.	.	4r	.	.	.
8C/	.	.	(8a-\L	.	.	.	.	.
8FF/	.	.	8bn\	.	4r	.	.	.
8C/J)	.	.	8cc\J	.	.	.	.	.
=28	=28	=28	=28	=28	=28	=28	=28	=28
(8FF/L	.	.	(4.dd-M\)	.	2.rb	.	.	.
8En/	.	1	.	.	.	.	.	.
8B-/	.	2	.	.	.	.	.	.
8E/	.	1	8cc\L	.	.	.	.	.
8FF/	.	.	8gg\	.	.	.	.	.
8E/J)	.	.	8b-\J)	.	.	.	.	.
*	*v	*v	*	*	*	*	*	*
=29	=29	=29	=29	=29	=29	=29	=29
(8FF\L	.	(4.a-\	.	2.rb	.	.	.
8C\	.	.	.	.	.	.	.
8A-\	.	.	.	.	.	.	.
8C\	.	8b-\L	.	.	.	.	.
8FF\	.	8bn\	.	.	.	.	.
8C\J)	.	8cc\J)	.	.	.	.	.
=30	=30	=30	=30	=30	=30	=30	=30
*	*^	*	*	*	*	*	*
(8FF\L	.	.	(8dd-M\L	.	2.rb	.	.	.
8En\	.	1	8cc\	.	.	.	.	.
8B-\	.	2	8dd-\	.	.	.	.	.
8E\	.	1	8cc\	.	.	.	.	.
8FF\	.	.	8g\	.	.	.	.	.
8E\J	.	.	8a-\J)	.	.	.	.	.
*	*v	*v	*	*	*	*	*	*
=31	=31	=31	=31	=31	=31	=31	=31
4FF/)	.	4f/	.	2.rb	.	.	.
4C 4FF/	.	4f 4c 4A-/	.	.	.	.	.
4C 4FF/	.	4f 4c 4A-/	.	.	.	.	.
=32	=32	=32	=32	=32	=32	=32	=32
*>B1	*	*>B1	*	*>B1	*	*	*
!	!	!	!	!LO:TX:a:t=1a	!	!	!
4C 4FF/	.	4f 4c 4A-/	.	2.rb	.	.	.
4C 4FF/	.	4f 4c 4A-/	.	.	.	.	.
4C 4FF/	.	4f 4c 4A-/	.	.	.	.	.
=33:|!	=33:|!	=33:|!	=33:|!	=33:|!	=33:|!	=33:|!	=33:|!
*>B2	*	*>B2	*	*>B2	*	*	*
*k[]	*	*k[]	*	*k[]	*	*	*
!	!	!	!	!LO:TX:a:t=2a	!	!	!
4C 4FF/	.	4f 4c 4An/	.	2.r	.	.	.
4C 4FF/	.	4f 4c 4A/	.	.	.	.	.
4C 4FF/	.	4f 4c 4A/	.	.	.	.	.
!!LO:PB:g=original
=34	=34	=34	=34	=34	=34	=34	=34
*>C	*	*>C	*	*>C	*	*	*
*k[b-]	*	*k[b-]	*	*k[b-]	*	*	*
!	!	!	!	!LO:TX:a:i:t=Poco più lento e religioso.	!	!	!
(4F\	.	(>4a 4f 4c/	.	4a/	Módl	.	.
4C/	.	4g 4e 4c/	.	4g/	się	.	.
4F\	.	4a 4f 4c/	.	4a/	a-	.	.
=35	=35	=35	=35	=35	=35	=35	=35
2BB-/	.	2b- 2f 2d/	.	2b-/	-nie-	.	.
4F\)	.	4a 4f 4c/)	.	8a/	-le	.	.
.	.	.	.	8a/	do	.	.
=36	=36	=36	=36	=36	=36	=36	=36
(4F\	.	(>4a 4f 4c/	.	4a/	świę-	.	.
4C/	.	4g 4en 4c/	.	4g/	-tej	.	.
4F\	.	4a 4f 4c/	.	4a/	Dzie-	.	.
=37	=37	=37	=37	=37	=37	=37	=37
2BB-/	.	2b- 2f 2d/	.	2b-/	-wi-	.	.
4F\)	.	4a 4f 4c/)	.	8a/	-cy	.	.
.	.	.	.	8r	.	.	.
!!LO:LB:g=original
=38	=38	=38	=38	=38	=38	=38	=38
4F 4FF/	.	4a 4f 4c/	.	4a\	By	.	.
4E 4EE/	.	4bn 4g#X 4e/	.	4bn\	wy-	.	.
4A 4AA/	.	4cc 4a 4e/	.	4cc\	-mo-	.	.
=39	=39	=39	=39	=39	=39	=39	=39
4.A 4.AA/	.	4.cc 4.a 4.e/	.	4.cc\	-dli-	.	.
8D 8DD/	.	8bn 8f 8d/	.	8bn\	-ła	.	.
4D 4DD/	.	4b 4f 4d/	.	4b\	na	[[to	.
=40	=40	=40	=40	=40	=40	=40	=40
4D 4DD/	.	4bn 4f 4d/	.	4bn/	swo-	na	.
2E 2EE/	.	4a 4e 4c/	.	4a/	-jej	swo-	.
.	.	4g#X 4e 4d/	.	4g#X/	Dzie-	-im	.
=41	=41	=41	=41	=41	=41	=41	=41
!	!	!LO:S:problem:note-level slur	!	!	!	!	!
[2E [2AA/	.	(2bn (>2g#X [2e 2d/	.	2bn\	-ci-	Sy-	.
8E] 8AA/]	.	8a) 8e]) 8c/	.	8a\	-nie	-nie]]	.
8r	.	8r	.	8r	.	.	.
=42	=42	=42	=42	=42	=42	=42	=42
4F\	.	4a 4f 4c/	.	4a/	a-	.	.
4C\	.	4g 4en 4c/	.	4g/	-bym	.	.
4F\	.	4a 4f 4c/	.	4a/	sta-	.	.
=43	=43	=43	=43	=43	=43	=43	=43
2BB-/	.	2b- 2f 2d^>/	.	2b-^\	-nę-	.	.
4F\	.	4a 4f 4c/	.	8a/	-ła	.	.
.	.	.	.	8a/	w nie-	.	.
=44	=44	=44	=44	=44	=44	=44	=44
*	*	*	*^	*	*	*	*
2.F 2.FF/	.	4a 4f 4c/	.	.	4a/	-bie-	.	.
!	!	!	!LO:HP:a	!LO:HP:b	!	!	!	!
.	.	.	<	<	.	.	.	.
.	.	4b- 4f 4d/	.	.	4b-\	-skiej	.	.
.	.	4cc 4f 4e-X/	[	[	4cc\	świe-	.	.
!!LO:LB:g=original
=45	=45	=45	=45	=45	=45	=45	=45	=45
*^	*	*	*	*	*	*	*	*
!	!	!	!	!LO:HP:a	!LO:HP:b	!	!	!	!
(2A [<2BB-\	2A/	.	(2cc [>2f (2e-X/	> ]	> ]	2cc\	-tli-	.	.
8B-/)	8BB-\]	.	8b-) 8f] 8d/)	.	.	8b-\	-cy	.	.
8r	8ryy	.	8r	.	.	8b-\	a	.	.
*	*	*	*	*v	*v	*	*	*	*
*v	*v	*	*	*	*	*	*	*
=46	=46	=46	=46	=46	=46	=46	=46
*	*	*	*^	*	*	*	*
!	!	!	!LO:DY:a	!LO:DY:b	!	!	!	!
4B- 4BB-\	.	4b- 4f 4d/	p	p	(4b-\	tam	.	.
4F 4FF\	.	4a 4f 4c/	.	.	4a\)	.	.	.
4B- 4BB-\	.	4b- 4f 4d/	.	.	4b-\	łzy	.	.
*	*	*	*v	*v	*	*	*	*
=47	=47	=47	=47	=47	=47	=47	=47
2E 2EE\	.	2b- 2g 2d^/	.	2b-^\	o-	.	.
8B- 8BB-\	.	8b- 8f 8d/	.	8b-\	-schną	.	.
8r	.	8r	.	8b-\	z za-	.	.
!!LO:PB:g=original
=48	=48	=48	=48	=48	=48	=48	=48
*	*	*	*^	*	*	*	*
2.G 2.GG/	.	4bn 4f 4d/	.	.	4bn\	-la-	.	.
!	!	!	!LO:HP:a	!LO:HP:b	!	!	!	!
.	.	.	<	\<	.	.	.	.
.	.	4cc 4g 4e/	.	.	4cc\	-nej	.	.
.	.	4dd 4g 4f/	[	[	4dd\	zre-	.	.
=49	=49	=49	=49	=49	=49	=49	=49	=49
*^	*	*	*	*	*	*	*	*
!	!	!	!	!LO:HP:a	!LO:HP:b	!	!	!	!
2Bn/	[2G [2C\	.	(2dd [>2g (2f/	>	>	2dd\	-ni-	.	.
8c/	8G] 8C\]	.	8cc) 8g] 8e/)	]	]	8cc\	-cy	.	.
8r	8r	.	8r	.	.	8r	.	.	.
*	*	*	*	*v	*v	*	*	*	*
*v	*v	*	*	*	*	*	*	*
=50	=50	=50	=50	=50	=50	=50	=50
(2.C#X (2.CC#X/	.	(>4b- 4g/	>	4b-\	Tam	.	>
.	.	4a 4f/	]	4a\	już	.	.
.	.	4g 4e/)	.	4g/	mi	.	]
!!LO:LB:g=original
=51	=51	=51	=51	=51	=51	=51	=51
!LO:TX:a:t=P:problem:brak zakończenia łuków	!	!	!	!	!	!	!
[2D) [2DD/)	.	(2g (2e/	.	2g/	wię-	.	.
8D] 8DD/]	.	8f 8d/))	.	4f/	-cej	.	.
8r	.	8r	.	.	.	.	.
=52	=52	=52	=52	=52	=52	=52	=52
2.AA 2.AAA/	.	(>4b- 4g 4e 4c#X/	>	8b-\	łe-	.	>
.	.	.	.	8b-\	-zka	.	]
.	.	4a 4f 4d/	]	4a/	nie	.	.
.	.	4g 4e 4B-/)	.	4g/	po-	.	.
=53	=53	=53	=53	=53	=53	=53	=53
!	!	!LO:S:problem:note-level slur	!	!	!	!	!
[2D [2DD/	.	(2g (>2e 2c#X (2B-/	>	2g/	-pły-	.	.
8D] 8DD/]	.	8f) 8d) 8A/)	]	8f/	-nie	.	.
8r	.	8r	.	8r	.	.	.
=54	=54	=54	=54	=54	=54	=54	=54
!	!	!LO:TX:b:t=poco più rallentando_:dur=9q:ext=cd:problem:tekst with extention lines	!	!LO:TX:a:t=poco più rallentando_:dur=9q:ext=cd:problem:tekst with extention lines	!	!	!
2D 2DD/	.	2f 2d 2A/	.	4f/	Módl	.	.
.	.	.	.	4f/	się	.	.
8C 8CC/	.	4g 4e 4c/	.	4g/	a-	.	.
8ryy	.	.	.	.	.	.	.
!!LO:LB:g=original
=55	=55	=55	=55	=55	=55	=55	=55
2.F 2.FF/	.	(>2.a 2.f 2.c/	.	2a/	-nie-	.	.
.	.	.	.	(8f/L	-le	.	.
.	.	.	.	8a/J)	.	.	.
=56	=56	=56	=56	=56	=56	=56	=56
2.C 2.CC/	.	4cc 4a 4f 4c/	.	8cc\	módl	.	.
.	.	.	.	8f/	się	.	.
.	.	4a 4f 4c/	.	4a/	che-	.	.
.	.	4g 4e 4c 4B-/	.	4g/	-ru-	.	.
=57	=57	=57	=57	=57	=57	=57	=57
!	!	!	!	!LO:TX:b:t=P:problem:łuk dopisany na czerwono	!	!	!
4C 4CC;/	.	4g 4e 4B-;/)	.	4g;/	-bi-	.	.
4F 4FF;/	.	4f 4c 4A;/	.	4f;/	-nie	.	.
!LO:TX:b:t=Fine	!	!	!	!	!	!	!
4r;	.	4r;	.	4r;	.	.	.
==	==	==	==	==	==	==	==
*-	*-	*-	*-	*-	*-	*-	*-
!!!system-decoration: s1{(s2,s3)}
!!!RDF**kern: > = above
!!!RDF**kern: < = below
!!!ENC: Marta Lawrence
!!!END: 2021-04-12
!!!ENC: Anastazja Marusiak
!!!END: 2021-04-06
